img/svg/form-label-icons/goal-ico.svg

<svg width="20" height="20" viewBox="0 0 20 20" fill="none" xmlns="http://www.w3.org/2000/svg">
<path d="M18.5318 4.78271L19.5018 3.81287C19.6629 3.65158 19.716 3.41141 19.6378 3.19733C19.5595 2.98309 19.364 2.83386 19.1367 2.81464L17.3372 2.66281L17.1854 0.863342C17.1663 0.636139 17.0169 0.440674 16.8028 0.362396C16.5887 0.283966 16.3486 0.337067 16.1873 0.498352L15.2173 1.4682C13.6487 0.506439 11.8552 0 10 0C7.32895 0 4.81766 1.04019 2.92892 2.92892C1.04019 4.81766 0 7.32895 0 10C0 12.6711 1.04019 15.1823 2.92892 17.0711C4.81766 18.9598 7.32895 20 10 20C12.6711 20 15.1823 18.9598 17.0711 17.0711C18.9598 15.1823 20 12.6711 20 10C20 8.14484 19.4936 6.35147 18.5318 4.78271ZM16.2109 3.25439C16.235 3.53912 16.4609 3.76495 16.7456 3.78906L17.7809 3.87634L16.3795 5.27771L14.8512 5.14877L14.7223 3.62045L16.1237 2.21909L16.2109 3.25439ZM11.9922 10C11.9922 11.0985 11.0985 11.9922 10 11.9922C8.90152 11.9922 8.00781 11.0985 8.00781 10C8.00781 8.90152 8.90152 8.00781 10 8.00781C10.3365 8.00781 10.6534 8.09189 10.9315 8.23975L9.58572 9.58572C9.35684 9.81445 9.35684 10.1854 9.58572 10.4143C9.70001 10.5287 9.85001 10.5859 10 10.5859C10.15 10.5859 10.3 10.5287 10.4143 10.4143L11.7603 9.06845C11.9081 9.34662 11.9922 9.66354 11.9922 10V10ZM11.7833 7.388C11.2752 7.0401 10.661 6.83594 10 6.83594C8.25531 6.83594 6.83594 8.25531 6.83594 10C6.83594 11.7447 8.25531 13.1641 10 13.1641C11.7447 13.1641 13.1641 11.7447 13.1641 10C13.1641 9.33899 12.9599 8.72482 12.612 8.21671L14.285 6.54373C15.0493 7.48947 15.5078 8.69217 15.5078 10C15.5078 13.037 13.037 15.5078 10 15.5078C6.96304 15.5078 4.49219 13.037 4.49219 10C4.49219 6.96304 6.96304 4.49219 10 4.49219C11.3078 4.49219 12.5105 4.95071 13.4563 5.71503L11.7833 7.388ZM16.2424 16.2424C14.575 17.9099 12.3581 18.8281 10 18.8281C7.64191 18.8281 5.42496 17.9099 3.75763 16.2424C2.09015 14.575 1.17188 12.3581 1.17188 10C1.17188 7.64191 2.09015 5.42496 3.75763 3.75763C5.42496 2.09015 7.64191 1.17188 10 1.17188C11.5427 1.17188 13.037 1.56815 14.3622 2.3233L13.7013 2.98416C13.5945 3.09097 13.5336 3.2341 13.5298 3.38348C13.5294 3.40485 13.53 3.42621 13.5316 3.44772L13.6105 4.38263C12.5688 3.71063 11.3292 3.32031 10 3.32031C6.31683 3.32031 3.32031 6.31683 3.32031 10C3.32031 13.6832 6.31683 16.6797 10 16.6797C13.6832 16.6797 16.6797 13.6832 16.6797 10C16.6797 8.67081 16.2894 7.43118 15.6174 6.38947L16.5523 6.46835C16.5688 6.46957 16.5852 6.47034 16.6016 6.47034C16.6043 6.47034 16.6072 6.47003 16.61 6.46988C16.6177 6.46988 16.6254 6.46927 16.6331 6.46881C16.6458 6.46805 16.6586 6.46729 16.6711 6.46576C16.6789 6.46469 16.6867 6.46347 16.6945 6.46225C16.7068 6.46027 16.7191 6.45798 16.7313 6.45523C16.739 6.4534 16.7467 6.45142 16.7543 6.44943C16.7662 6.44623 16.778 6.44257 16.7897 6.4386C16.7973 6.436 16.8048 6.43341 16.8123 6.43051C16.8237 6.42609 16.835 6.4212 16.8463 6.41586C16.8535 6.41266 16.8607 6.40945 16.8678 6.40579C16.8791 6.39999 16.8901 6.39359 16.9009 6.38718C16.9075 6.38321 16.9141 6.37955 16.9205 6.37558C16.9321 6.36795 16.9432 6.35971 16.9543 6.35132C16.9595 6.34735 16.9649 6.34384 16.9699 6.33972C16.9858 6.3269 17.0012 6.31332 17.0158 6.29868L17.6767 5.63782C18.4319 6.96304 18.8281 8.45734 18.8281 10C18.8281 12.3581 17.9099 14.575 16.2424 16.2424V16.2424Z" fill="#4C51CC"/>
</svg>

<svg width="20" height="20" fill="none" xmlns="http://www.w3.org/2000/svg"><path d="M18.532 4.783l.97-.97a.586.586 0 00-.365-.998l-1.8-.152-.152-1.8a.586.586 0 00-.998-.365l-.97.97A9.946 9.946 0 0010 0a9.935 9.935 0 00-7.071 2.929A9.935 9.935 0 000 10a9.935 9.935 0 002.929 7.071A9.935 9.935 0 0010 20a9.935 9.935 0 007.071-2.929A9.935 9.935 0 0020 10a9.947 9.947 0 00-1.468-5.217zM16.21 3.254c.024.285.25.51.535.535l1.035.087-1.401 1.402-1.529-.13-.129-1.528 1.402-1.4.087 1.034zM11.992 10A1.994 1.994 0 0110 11.992 1.994 1.994 0 018.008 10a1.994 1.994 0 012.924-1.76L9.585 9.586a.586.586 0 10.828.828l1.346-1.346c.148.279.232.596.232.932zm-.209-2.612A3.147 3.147 0 0010 6.836 3.168 3.168 0 006.836 10 3.168 3.168 0 0010 13.164 3.168 3.168 0 0013.164 10c0-.661-.204-1.275-.552-1.783l1.673-1.673A5.482 5.482 0 0115.508 10 5.514 5.514 0 0110 15.508 5.514 5.514 0 014.492 10 5.514 5.514 0 0110 4.492c1.308 0 2.51.459 3.456 1.223l-1.673 1.673zm4.46 8.854A8.77 8.77 0 0110 18.828a8.77 8.77 0 01-6.242-2.586A8.77 8.77 0 011.172 10a8.77 8.77 0 012.586-6.242A8.77 8.77 0 0110 1.172c1.543 0 3.037.396 4.362 1.151l-.66.661a.586.586 0 00-.17.464l.079.935A6.64 6.64 0 0010 3.32 6.687 6.687 0 003.32 10 6.687 6.687 0 0010 16.68 6.687 6.687 0 0016.68 10a6.64 6.64 0 00-1.063-3.61l.935.078a.668.668 0 00.05.002h.008l.023-.001.038-.003.024-.004a.604.604 0 00.206-.075l.02-.011a.635.635 0 00.033-.025l.016-.011a.569.569 0 00.046-.041l.66-.661A8.783 8.783 0 0118.829 10a8.77 8.77 0 01-2.586 6.242z" fill="#4C51CC"/></svg>
